packages/kaspersky-hexa-ui-icons/src/iconsSVGs/28x20/FlagSy.svg

<svg width="28" height="20" viewBox="0 0 28 20" fill="none" xmlns="http://www.w3.org/2000/svg">
<g clip-path="url(#clip0_5138_1747)">
<path d="M0 2C0 0.895431 0.895431 0 2 0H26C27.1046 0 28 0.895431 28 2V18C28 19.1046 27.1046 20 26 20H2C0.895431 20 0 19.1046 0 18V2Z" fill="white"/>
<mask id="mask0_5138_1747" style="mask-type:luminance" maskUnits="userSpaceOnUse" x="0" y="0" width="28" height="20">
<rect width="28" height="20" rx="2" fill="white"/>
</mask>
<g mask="url(#mask0_5138_1747)">
<path d="M26 19.5V20H2V19.5H26ZM27.5 18V2C27.5 1.17157 26.8284 0.5 26 0.5H2C1.17157 0.5 0.5 1.17157 0.5 2V18C0.5 18.8284 1.17157 19.5 2 19.5V20C0.895431 20 0 19.1046 0 18V2C2.57702e-07 0.895431 0.895431 0 2 0H26C27.1046 0 28 0.895431 28 2V18C28 19.1046 27.1046 20 26 20V19.5C26.8284 19.5 27.5 18.8284 27.5 18Z" fill="#F5F5F5"/>
<path fill-rule="evenodd" clip-rule="evenodd" d="M0 20H28V13.3333H0V20Z" fill="#262626"/>
<path fill-rule="evenodd" clip-rule="evenodd" d="M0 6.66667H28V0H0V6.66667Z" fill="#E32139"/>
<path fill-rule="evenodd" clip-rule="evenodd" d="M9.33333 11.0933L7.7659 12.1574L8.29351 10.3379L6.79718 9.17596L8.69069 9.11548L9.33333 7.33334L9.97598 9.11548L11.8695 9.17596L10.3732 10.3379L10.9008 12.1574L9.33333 11.0933Z" fill="#128A49"/>
<path fill-rule="evenodd" clip-rule="evenodd" d="M18.6667 11.0933L17.0992 12.1574L17.6268 10.3379L16.1305 9.17596L18.024 9.11548L18.6667 7.33334L19.3093 9.11548L21.2028 9.17596L19.7065 10.3379L20.2341 12.1574L18.6667 11.0933Z" fill="#128A49"/>
</g>
</g>
<defs>
<clipPath id="clip0_5138_1747">
<rect width="28" height="20" fill="white"/>
</clipPath>
</defs>
</svg>

<svg xmlns="http://www.w3.org/2000/svg" width="28" height="20" fill="none" viewBox="0 0 28 20"><g clip-path="url(#a)"><path fill="#fff" d="M0 2C0 .8954.8954 0 2 0h24c1.1046 0 2 .8954 2 2v16c0 1.1046-.8954 2-2 2H2c-1.1046 0-2-.8954-2-2z"/><mask id="b" width="28" height="20" x="0" y="0" maskUnits="userSpaceOnUse" style="mask-type:luminance"><rect width="28" height="20" fill="#fff" rx="2"/></mask><g mask="url(#b)"><path fill="#f5f5f5" d="M26 19.5v.5H2v-.5zm1.5-1.5V2c0-.8284-.6716-1.5-1.5-1.5H2C1.1716.5.5 1.1716.5 2v16c0 .8284.6716 1.5 1.5 1.5v.5c-1.1046 0-2-.8954-2-2V2C0 .8954.8954 0 2 0h24c1.1046 0 2 .8954 2 2v16c0 1.1046-.8954 2-2 2v-.5c.8284 0 1.5-.6716 1.5-1.5"/><path fill="#262626" fill-rule="evenodd" d="M0 20h28v-6.6667H0z" clip-rule="evenodd"/><path fill="#e32139" fill-rule="evenodd" d="M0 6.6667h28V0H0z" clip-rule="evenodd"/><path fill="#128a49" fill-rule="evenodd" d="m9.333 11.093-1.567 1.064.528-1.819-1.496-1.162 1.894-.06.643-1.782.643 1.782 1.894.061-1.496 1.162.528 1.82zm9.334 0L17.1 12.157l.528-1.819-1.496-1.162 1.894-.06.643-1.782.643 1.782 1.894.061-1.496 1.162.528 1.82z" clip-rule="evenodd"/></g></g><defs><clipPath id="a"><path fill="#fff" d="M0 0h28v20H0z"/></clipPath></defs></svg>
